X: 3
T: The Frog In The Well
R: jig
M: 6/8
L: 1/8
K: Emin
D|~E3 FEE|BEE GFE|DED FDF|AFA dAF|~E3 FEE|BEE GFE|d2B AFA|BED E2:|d|efe BAB|def gfe|fdd Add|fdf afd|efe BAB|def afd|edB AFA|BED E2:|


Tune 1395	Setting 1395

